X: 6
T: No_15_Song_of_Y'ak,_the_Medicine_Man_(a).krn
N: Derived from No_15_Song_of_Y'ak,_the_Medicine_Man_(a).krn
%%abc-version 2.0
%%abcx-abcm2ps-target-version 5.9.1 (29 Sep 2008)
%%abc-creator hum2abc beta
%%abcx-conversion-date 2019/03/15 08:26:49
%%humdrum-veritas 2661630738
%%humdrum-veritas-data 3400003162
%%linebreak <none>
%%barnumbers 0
L: 1/8
M: 2/4
%%staves {1 2}
V: 1 clef=bass
V: 2 clef=bass
K: E
[V:1] [K:clef=bass][M:2/4]G,2B,3/B,/ | 
[V:2] [K:clef=bass][M:2/4]G,,G,, G,,G,, | 
[V:1] (3B,G,G, B,3/B,/ | 
[V:2] G,,G,,z2 | 
[V:1] B,/G,3/ G,3/G,/ | 
[V:2] z4 | 
[V:1] E, z G,3/G,/ | 
[V:2] z4 | 
[V:1] G,2G,3/G,/ | 
[V:2] z4 | 
[V:1] G,3/E,/ G,3/G,/ | 
[V:2] z4 | 
[V:1] G,/E,3/ E,3/E,/ | 
[V:2] z4 | 
[V:1] B,, z E,3/E,/ | 
[V:2] z4 | 
[V:1] E,2G,3/G,/ | 
[V:2] z4 | 
[V:1] G, z (3G,E,E, | 
[V:2] z4 | 
[V:1] E,2E,3/E,/ | 
[V:2] z4 | 
[V:1] C, z C,3/C,/ | 
[V:2] z4 | 
[V:1] C,2E,3/G,/ | 
[V:2] z4 | 
[V:1] G, z (3B,G,B, | 
[V:2] z4 | 
[V:1] G,2B,3/B,/ | 
[V:2] z4 | 
[V:1] B,/G,/ z B,3/B,/ ]|:  
[V:2] z4 ]|:  
[V:1] G,2G,3/G,/ | 
[V:2] z4 | 
[V:1] E, z B,3/B,/ | 
[V:2] z4 | 
[V:1] G,2G,3/G,/ | 
[V:2] z4 | 
[V:1] (3G,E,E, G,3/G,/ | 
[V:2] z4 | 
[V:1] E,2E,3/E,/ | 
[V:2] z4 | 
[V:1] C, z E,3/E,/ | 
[V:2] z4 | 
[V:1] E,2G,3/G,/ | 
[V:2] z4 | 
[V:1] G, z (3G,E,E, | 
[V:2] z4 | 
[V:1] E,2E,3/E,/ | 
[V:2] z4 | 
[V:1] C, z C,3/C,/ | 
[V:2] z4 | 
[V:1] C,2E,3/G,/ | 
[V:2] z4 | 
[V:1] G, z (3B,G,G, | 
[V:2] z4 | 
[V:1] G,2B,3/B,/ | 
[V:2] z4 | 
[V:1] B,/G,3/ (3B,G,G, :|]  
[V:2] z4 :|]  
[V:1] B,/G,3/z2 |]  
[V:2] z4 |]  



